assets/build/img/add-option.svg

<svg width="24" height="24" viewBox="0 0 24 24" fill="none" xmlns="http://www.w3.org/2000/svg">
<circle cx="12" cy="12" r="12" fill="#1D1D1D"/>
<path d="M10.8595 18.279V13.324H6.16666V11.1217H10.8595V6.16666H13.1404V11.1217H17.8333V13.324H13.1404V18.279H10.8595Z" fill="white"/>
</svg>

<svg width="24" height="24" fill="none" xmlns="http://www.w3.org/2000/svg"><circle cx="12" cy="12" r="12" fill="#1D1D1D"/><path d="M10.86 18.279v-4.955H6.167v-2.202h4.693V6.167h2.28v4.955h4.693v2.202H13.14v4.955h-2.28z" fill="#fff"/></svg>
